src/assets/social/SocialTwitter.svg

<svg viewBox="0 0 24 24" xmlns="http://www.w3.org/2000/svg">
<path d="M21.543 7.49109C21.5576 7.68594 21.5576 7.8808 21.5576 8.07745C21.5576 14.0694 16.6045 20.98 7.54759 20.98V20.9764C4.87215 20.98 2.25229 20.2742 0 18.9435C0.389031 18.9866 0.780012 19.0081 1.17197 19.009C3.38915 19.0108 5.54296 18.3257 7.28726 17.0641C5.18026 17.0272 3.3326 15.762 2.68714 13.915C3.42523 14.0461 4.18574 14.0191 4.91018 13.8369C2.61304 13.4094 0.96039 11.5507 0.96039 9.39203C0.96039 9.37228 0.96039 9.35342 0.96039 9.33457C1.64485 9.68566 2.41121 9.88052 3.19512 9.90207C1.03157 8.57042 0.364656 5.91969 1.67118 3.84723C4.17111 6.68025 7.8596 8.4025 11.8191 8.58478C11.4223 7.00979 11.9644 5.35937 13.2436 4.25221C15.2268 2.53534 18.3459 2.62334 20.2101 4.44886C21.3129 4.24861 22.3698 3.87597 23.337 3.34798C22.9694 4.39767 22.2001 5.28933 21.1725 5.85593C22.1484 5.74998 23.102 5.50933 24 5.14207C23.3389 6.05438 22.5063 6.84906 21.543 7.49109Z"/>
</svg>

<svg xmlns="http://www.w3.org/2000/svg" viewBox="0 0 24 24"><path d="M21.543 7.491c.015.195.015.39.015.586 0 5.992-4.953 12.903-14.01 12.903v-.004c-2.676.004-5.296-.702-7.548-2.032.389.043.78.064 1.172.065 2.217.002 4.371-.683 6.115-1.945-2.107-.037-3.954-1.302-4.6-3.149a5.318 5.318 0 0 0 2.223-.078C2.613 13.409.96 11.55.96 9.392v-.057c.685.35 1.451.546 2.235.567C1.032 8.57.365 5.92 1.671 3.847 4.171 6.68 7.86 8.403 11.82 8.585c-.397-1.575.145-3.226 1.425-4.333 1.983-1.717 5.102-1.629 6.966.197a10.41 10.41 0 0 0 3.127-1.101c-.368 1.05-1.137 1.941-2.165 2.508.976-.106 1.93-.347 2.828-.714a9.604 9.604 0 0 1-2.457 2.35"/></svg>
